img/wit-paard.svg

<?xml version="1.0" encoding="utf-8"?>
<svg width="900" height="900" xmlns="http://www.w3.org/2000/svg" xmlns:bx="https://boxy-svg.com">
  <defs>
    <linearGradient id="a" spreadMethod="pad">
      <stop offset="0.5" style="stop-color: rgb(232, 232, 232);"/>
      <stop offset="1" stop-color="#888"/>
    </linearGradient>
  </defs>
  <g stroke="#666" stroke-width="16" stroke-linecap="round" stroke-linejoin="round" fill="url(#a)" transform="translate(20,0)">
    <path d="M 529 402 C 529 478 440 544 353 511 C 340 506 219 616 199 601 C 184 589 216 540 214 546 C 203 576 153 609 114 566 C 98 550 103 502 136 463 C 171 422 206 359 220 323 C 248 250 237 248 289 182 C 299 170 273 122 283 90 C 320 97 334 134 352 150 C 362 127 355 65 373 68 C 390 71 411 124 440 148 C 791 256 789 818 690 820 C 569 822 424 822 302 820 C 273 819 259 781 265 758 C 292 650 407 573 463 536 C 521 497 531 459 529 402 M 328.948 257.671 C 305.101 259.756 302.231 313.818 269 318 M 298 326 C 309 336 322 337 324 319 M 151 518 C 137 514 127 536 136 537 M 317 474 L 326 486 M 529 369 L 529 344 M 326 163 L 316 168 M 379 109 C 409 151 420 160 384 153 M 454 131 C 541 157 526 138 545 168 C 555 185 569 162 603 164 C 621 165 553 137 544 126 C 532 110 442 127 454 131 M 580 200 C 607 220 627 199 626 235 C 625 260 658 243 674 254 C 689 263 704 225 695 225 C 680 225 656 232 661 216 C 670 180 572 194 580 200 M 660 278 C 665 280 694 299 692 308 C 685 356 721 353 736 358 C 757 365 735 340 724 327 C 713 314 732 308 730 300 C 726 270 657 277 660 278 M 710 379 C 715 387 727 397 731 411 C 735 425 736 437 744 452 C 751 467 782 465 795 461 C 812 455 752 437 766 409 C 774 391 708 374 710 379 M 438 730 L 412 791" style="fill-rule: nonzero;"/>
  </g>
  <path style="fill: rgba(243, 251, 12, 0.55);" d="M 285.31 311.118 C 289.112 309.146 296.715 305.204 304.038 297.6 C 311.36 289.996 318.4 278.732 323.61 270.142 C 328.82 261.553 332.2 255.639 336.706 252.541 C 341.211 249.443 346.844 249.162 350.786 250.007 C 354.729 250.851 356.982 252.823 358.39 255.357 C 359.798 257.892 360.361 260.99 357.826 263.102 C 355.292 265.214 349.659 266.341 345.435 269.016 C 341.211 271.691 338.395 275.916 335.297 281.126 C 332.2 286.335 328.82 292.531 325.159 298.304 C 321.498 304.077 317.556 309.428 313.754 313.512 C 309.952 317.595 306.291 320.411 302.489 322.523 C 298.687 324.635 294.745 326.043 290.943 326.043 C 287.141 326.043 283.48 324.635 281.931 322.241 C 280.382 319.848 280.945 316.468 281.227 314.779 C 281.508 313.089 281.508 313.089 281.508 313.089 C 281.508 313.089 281.508 313.089 285.31 311.118" bx:d="M 281.508 313.089 U 304.319 301.261 U 325.441 267.467 U 335.579 249.725 U 352.476 248.88 U 359.235 254.794 U 360.924 264.088 U 344.027 267.467 U 335.579 280.14 U 325.441 298.726 U 313.613 314.779 U 302.63 323.227 U 290.802 327.451 U 279.819 323.227 U 281.508 313.089 U 281.508 313.089 Z 1@0760d21e"/>
  <path style="fill: rgba(243, 251, 12, 0.54);" d="M 314.317 332.239 C 316.71 334.492 321.498 338.997 326.567 340.687 C 331.636 342.377 336.987 341.25 341.211 338.857 C 345.435 336.463 348.533 332.802 350.082 329.986 C 351.63 327.17 351.631 325.198 351.912 322.664 C 352.194 320.129 352.757 317.031 350.082 314.215 C 347.406 311.399 341.492 308.864 338.535 311.821 C 335.578 314.778 335.579 323.227 333.467 325.198 C 331.355 327.169 327.13 322.664 323.892 320.411 C 320.653 318.158 318.4 318.158 316.147 318.862 C 313.894 319.566 311.641 320.974 310.937 322.945 C 310.233 324.916 311.078 327.451 311.501 328.719 C 311.923 329.986 311.923 329.986 311.923 329.986 C 311.923 329.986 311.923 329.986 314.317 332.239" bx:d="M 311.923 329.986 U 326.285 343.503 U 342.338 340.124 U 351.63 329.141 U 351.631 323.227 U 353.32 313.933 U 335.578 306.33 U 335.579 331.675 U 322.906 318.158 U 316.147 318.158 U 309.388 322.382 U 311.923 329.986 U 311.923 329.986 Z 1@e7c0ccd8"/>
</svg>

<svg xmlns='http://www.w3.org/2000/svg' xmlns:xlink='http://www.w3.org/1999/xlink' width='900' height='900'><defs><linearGradient id='a'><stop offset='50%' stop-color='#eee'/><stop offset='100%' stop-color='#999'/></linearGradient></defs><g stroke='#666' stroke-width='16' stroke-linecap='round' stroke-linejoin='round' fill='url(#a)' transform='translate(20,0)'><path d='M529 402c0 76-89 142-176 109-13-5-134 105-154 90-15-12 17-61 15-55-11 30-61 63-100 20-16-16-11-64 22-103 35-41 70-104 84-140 28-73 17-75 69-141 10-12-16-60-6-92 37 7 51 44 69 60 10-23 3-85 21-82 17 3 38 56 67 80 351 108 349 670 250 672-121 2-266 2-388 0-29-1-43-39-37-62 27-108 142-185 198-222 58-39 68-77 66-134M345 294c-29-5-55 3-76 24m29 8c11 10 24 11 26-7M151 518c-14-4-24 18-15 19m181-63l9 12m203-117v-25M326 163l-10 5m63-59c30 42 41 51 5 44M454 131c87 26 72 7 91 37 10 17 24-6 58-4 18 1-50-27-59-38-12-16-102 1-90 5M580 200c27 20 47-1 46 35-1 25 32 8 48 19 15 9 30-29 21-29-15 0-39 7-34-9 9-36-89-22-81-16M660 278c5 2 34 21 32 30-7 48 29 45 44 50 21 7-1-18-12-31s8-19 6-27c-4-30-73-23-70-22M710 379c5 8 17 18 21 32s5 26 13 41c7 15 38 13 51 9 17-6-43-24-29-52 8-18-58-35-56-30M438 730l-26 61'/></g></svg>
